src/actions/22/office-chart-bar-percentage.svg

<svg xmlns="http://www.w3.org/2000/svg" viewBox="0 0 22 22">
    <defs id="defs3051">
        <style id="current-color-scheme" type="text/css">
            .ColorScheme-Highlight{color:#a0b6cb}
        </style>
    </defs>
    <path d="M4 3v14H3v1h1v1h1v-1h14v-1h-3V8h-4v9h-2V4h1V3H6v14H5V3H4zm8 0v1h1v3h1V3h-2zm4.5 0c-.831 0-1.5.669-1.5 1.5v1c0 .831.669 1.5 1.5 1.5S18 6.331 18 5.5v-1c0-.831-.669-1.5-1.5-1.5zm4 0c-.831 0-1.5.669-1.5 1.5v1c0 .831.669 1.5 1.5 1.5S22 6.331 22 5.5v-1c0-.831-.669-1.5-1.5-1.5zM7 4h2v13H7V4zm9.5 0c.277 0 .5.223.5.5v1a.499.499 0 1 1-1 0v-1c0-.277.223-.5.5-.5zm4 0c.277 0 .5.223.5.5v1a.499.499 0 1 1-1 0v-1c0-.277.223-.5.5-.5zM13 9h2v8h-2V9z" style="fill:currentColor;fill-opacity:1;stroke:none;color:#050505;opacity:.7"/>
</svg>

<svg xmlns="http://www.w3.org/2000/svg" viewBox="0 0 22 22">
  <defs id="defs3051">
    <style type="text/css" id="current-color-scheme">
      .ColorScheme-Text {
        color:#363636;
      }
      .ColorScheme-Highlight {
        color:#3daee9;
      }
      </style>
  </defs>
 <path 
     style="fill:currentColor;fill-opacity:1;stroke:none" 
     d="M 4 3 L 4 9 L 4 10 L 4 15 L 4 16 L 4 17 L 3 17 L 3 18 L 4 18 L 4 19 L 5 19 L 5 18 L 19 18 L 19 17 L 16 17 L 16 8 L 15 8 L 12 8 L 12 17 L 10 17 L 10 4 L 11 4 L 11 3 L 10 3 L 6 3 L 6 17 L 5 17 L 5 16 L 5 15 L 5 12 L 5 11 L 5 10 L 5 9 L 5 6 L 5 5.9921875 L 5 5 L 5 3 L 4 3 z M 12 3 L 12 4 L 13 4 L 13 7 L 14 7 L 14 3 L 13 3 L 12 3 z M 16.5 3 C 15.669 3 15 3.669 15 4.5 L 15 5.5 C 15 6.331 15.669 7 16.5 7 C 17.331 7 18 6.331 18 5.5 L 18 4.5 C 18 3.669 17.331 3 16.5 3 z M 20.5 3 C 19.669 3 19 3.669 19 4.5 L 19 5.5 C 19 6.331 19.669 7 20.5 7 C 21.331 7 22 6.331 22 5.5 L 22 4.5 C 22 3.669 21.331 3 20.5 3 z M 7 4 L 9 4 L 9 17 L 7 17 L 7 4 z M 16.5 4 C 16.777 4 17 4.223 17 4.5 L 17 5.5 C 17 5.777 16.777 6 16.5 6 C 16.223 6 16 5.777 16 5.5 L 16 4.5 C 16 4.223 16.223 4 16.5 4 z M 20.5 4 C 20.777 4 21 4.223 21 4.5 L 21 5.5 C 21 5.777 20.777 6 20.5 6 C 20.223 6 20 5.777 20 5.5 L 20 4.5 C 20 4.223 20.223 4 20.5 4 z M 13 9 L 15 9 L 15 17 L 13 17 L 13 9 z "
     class="ColorScheme-Text"
     />
</svg>
